symbols/web/print_disabled/materialsymbolssharp/print_disabled_wght600_48px.svg

<svg xmlns="http://www.w3.org/2000/svg" height="48" width="48"><path d="M41.45 45.85 36.65 41v2.05H11.4V33.8H3.3V14.95h7.25l-8.4-8.4L4.5 4.2l39.3 39.3Zm-26.1-6.6h17.3v-2.2L26.9 31.3H15.35Zm23.5-5.45-4-4h5.9V18.85H23.9l-3.95-4h24.8V33.8Zm-31.6-4h4.15v-2.5h11.5l-8.45-8.45h-7.2Zm25.4-14.95v-5.6H14.3l-3.95-4h26.3v9.6Zm4.3 9.15q.7 0 1.175-.475.475-.475.475-1.175 0-.7-.475-1.2t-1.175-.5q-.65 0-1.15.5-.5.5-.5 1.2t.5 1.175q.5.475 1.15.475ZM23.9 18.85h16.85H23.9Zm-16.65 0h7.2-7.2Z"/></svg>

<svg xmlns="http://www.w3.org/2000/svg" height="48" width="48"><path d="M41.45 45.85 36.65 41V43.05H11.4V33.8H3.3V14.95H10.55L2.15 6.55L4.5 4.2L43.8 43.5ZM15.35 39.25H32.65V37.05L26.9 31.3H15.35ZM38.85 33.8 34.85 29.8H40.75V18.85H23.9L19.95 14.85H44.75V33.8ZM7.25 29.8H11.4V27.3H22.9L14.45 18.85H7.25ZM32.65 14.85V9.25H14.3L12.05 7V5.25H36.65V14.85ZM36.95 24Q37.65 24 38.125 23.525Q38.6 23.05 38.6 22.35Q38.6 21.65 38.125 21.15Q37.65 20.65 36.95 20.65Q36.3 20.65 35.8 21.15Q35.3 21.65 35.3 22.35Q35.3 23.05 35.8 23.525Q36.3 24 36.95 24ZM23.9 18.85H40.75H23.9ZM7.25 18.85H14.45H11.4H7.25Z"/></svg>
